X: 7860
T:Spike Island Lasses
O:Ireland
R:Reel
M:4/4
K:DMix
d|\
cAGE FDDE| FAGA FDD2| cAGB AGFG| Adde fded|
cAGE FDDE| FDAD FDD2| cAGB AGFG| Add^c d3 e||
f2df efge| fded ^cAAe| f2df ed^cd| Add^c d2cd|
eaag efge| dfed =cAGB| Add^c d2dB| ABde fded||
cAGB A2A2| BdBG A2A2| cAGB AGFG| Adde fded|
cAGB A2A2| BGGF G3A| cAGB AGFG| Add^c d3e||
f2af ffaf| f2af ge^ce| f2af ffaf| gagf d^cAc|
defg a2ab| agfa g2ge| f2fd ed^cA|1 d^cde fded :|2 cAGE D4|]
